X:32
T:Shropshire Hero,The. JBs.032
S:Jas.Blackshaw MS, 1837, N.Shropshire
Z:Tony Weatherall 2006
M:2/4
L:1/8
Q:1/4=100
A:North Shropshire
R:March
K:F
((3C/D/E/)|F2A2|c2z A/c/|fc/f/ af|c2zf|edcB|AA/A/ Ad|!
cBAG|FF/F/ FG|AGAB|c/d/e/f/ gc|d2B2|c2z:|!
|:â€*â€z|ff/f/ fa|ff/f/ fa|fafa|b/a/g/a/ fc|!
ff/f/ fa|ff/f/ fdâ€™|câ€™>a b/a/b/g/|f2z:|!
|:c/d/|e2 e/f/d/e/|cc/c/ ce|dccd|d/c/B/A/ Gc/d/|!
e2e/f/d/e/|c2B/c/B/c/|A/f/e/d/ d/c/B/c/|dc â€œ*â€c:|

